findly-builder/apps/searchassist/src/assets/icons/clone-blue.svg

<svg width="12" height="12" viewBox="0 0 12 12" fill="none" xmlns="http://www.w3.org/2000/svg">
<path fill-rule="evenodd" clip-rule="evenodd" d="M11.9979 0.469151C11.9742 0.206117 11.7531 0 11.4839 0H3.94355L3.89657 0.00210925C3.63354 0.025842 3.42742 0.246915 3.42742 0.516129V3.42742H0.516129C0.231079 3.42742 0 3.6585 0 3.94355V11.4839C0 11.7689 0.231079 12 0.516129 12H8.05645C8.3415 12 8.57258 11.7689 8.57258 11.4839V8.57258H11.4839L11.5308 8.57047C11.7939 8.54674 12 8.32567 12 8.05645V0.516129L11.9979 0.469151ZM8.57258 7.54032H10.9677V1.03226H4.45968V3.42742H8.05645C8.3415 3.42742 8.57258 3.6585 8.57258 3.94355V7.54032ZM7.54032 4.45968V10.9677H1.03226V4.45968H7.54032Z" fill="#0D6EFD"/>
</svg>

<svg width="12" height="12" fill="none" xmlns="http://www.w3.org/2000/svg"><path fill-rule="evenodd" clip-rule="evenodd" d="M11.998.47a.516.516 0 0 0-.514-.47h-7.54l-.047.002a.516.516 0 0 0-.47.514v2.911H.517A.516.516 0 0 0 0 3.944v7.54c0 .285.231.516.516.516h7.54a.516.516 0 0 0 .517-.516V8.573h2.91l.048-.003A.516.516 0 0 0 12 8.056V.516L11.998.47ZM8.573 7.54h2.395V1.032H4.46v2.395h3.596c.286 0 .517.232.517.517V7.54ZM7.54 4.46v6.508H1.032V4.46H7.54Z" fill="#0D6EFD"/></svg>
